addons/godot-flexbox/assets/dark/AlignItemsCenterRowIcon.svg

<svg xmlns="http://www.w3.org/2000/svg" width="16" height="16" fill="none" data-wf-icon="AlignItemsCenterRowIcon" viewBox="0 0 24 24"><path fill="#d6d6d6" d="M4.5 4.5h6v6H12V6h6v4.5h6V12h-6v4.5h-6V12h-1.5v6h-6v-6H0v-1.5h4.5v-6Z"/></svg>

<svg data-wf-icon="AlignItemsCenterRowIcon" width="16" height="16" viewBox="0 0 24 24" fill="none" xmlns="http://www.w3.org/2000/svg"><path d="M4.5 4.5H10.5V10.5H12V6H18V10.5H24V12H18V16.5H12V12H10.5V18H4.5V12H0V10.5H4.5V4.5Z" fill="#d6d6d6"></path></svg>
